svgs/one_hand_operation.svg

<svg width="192" height="192" viewBox="0 0 192 192" fill="none" xmlns="http://www.w3.org/2000/svg">
<path d="M99.0486 131.919H59C51.268 131.919 45 125.651 45 117.919V36C45 28.268 51.268 22 59 22H111.568C119.378 22 125.678 28.3906 125.566 36.2L124.555 107.02" stroke="black" stroke-width="12" stroke-linecap="round" stroke-linejoin="round"/>
<path d="M107.551 172V150.138M107.551 150.138V138.599C91.1599 119.132 80.83 94.8745 87.5101 90.0162C93.583 85.5996 99.5383 90.01 114.231 110.664C117.874 114.915 127.591 115.522 127.591 113.093V60.2591C139.737 63.2956 142.166 114.308 144.595 150.138M107.551 150.138H144.595M144.595 150.138V166.534C144.595 166.534 148.103 168.631 148.846 172" stroke="black" stroke-width="8" stroke-linecap="round" stroke-linejoin="round"/>
</svg>

<svg width="192" height="192" viewBox="0 0 192 192" fill="none" xmlns="http://www.w3.org/2000/svg"><path d="M99.049 131.919H59c-7.732 0-14-6.268-14-14V36c0-7.732 6.268-14 14-14h52.568c7.81 0 14.11 6.39 13.998 14.2l-1.011 70.82" stroke="#000" stroke-width="12" stroke-linecap="round" stroke-linejoin="round"/><path d="M107.551 172v-21.862m0 0v-11.539C91.16 119.132 80.83 94.875 87.511 90.016c6.072-4.416 12.027-.006 26.72 20.648 3.643 4.251 13.36 4.858 13.36 2.429V60.259c12.146 3.037 14.575 54.049 17.004 89.879m-37.044 0h37.044m0 0v16.396s3.508 2.097 4.251 5.466" stroke="#000" stroke-width="8" stroke-linecap="round" stroke-linejoin="round"/></svg>
